X:9
T:New Concert Hornpipe. WM.009
M:C
L:1/8
Q:1/2=90
S:Wm.Mittell's MS, New Romney,Kent,1799
R:.Hornpipe
O:England
A:Kent
N:Would seem to be something missing from third part? also key may be a
N:bit funny.
Z:vmp.Chris Partington
K:C
c2ecd2fd|c2ec cBAG|c2ecd2fd|edcB .c.c.cz:|!
|:g2bge2ge|d2gc cBAG|g2bge2ge|fdcB .c.c.cz:|!
|:g2g2.b.g .b.g|e2e2.g.e .g.e|fedc cBAG|c2gcd2ec|!
cBAG (df).d.d|(fd).c.c (dg).e.c|cBAG .c.c.cz:|

